brandFactory_export/3.Masa/Antena_3Masa.svg

<?xml version="1.0" encoding="UTF-8"?>
<svg width="24px" height="24px" viewBox="0 0 24 24" version="1.1" xmlns="http://www.w3.org/2000/svg" xmlns:xlink="http://www.w3.org/1999/xlink">
    <title>3.Masa/Antena_3Masa</title>
    <g id="Symbols" stroke="none" stroke-width="1" fill="none" fill-rule="evenodd">
        <g id="3.Masa/Antena_3Masa" fill="#5CB615" fill-rule="nonzero">
            <path d="M19.2168067,22.0739496 L19.2168067,20.2991597 L12.7159664,20.2991597 C12.6420168,20.2991597 12.5008403,20.2957983 12.5008403,20.2957983 C12.5008403,20.2957983 12.3663866,20.2991597 12.292437,20.2991597 L11.3344538,20.2991597 C11.2537815,20.2991597 11.102521,20.2957983 11.102521,20.2957983 C11.102521,20.2957983 10.9546218,20.2991597 10.8739496,20.2991597 L4.4302521,20.2991597 L4.4302521,22.0739496 L19.2168067,22.0739496 Z M10.4537815,17.0823529 L9.86554622,18.7495798 L10.8739496,18.7495798 C10.9546218,18.7495798 11.1092437,18.7529412 11.1092437,18.7529412 C11.1092437,18.7529412 11.2537815,18.7495798 11.3344538,18.7495798 L12.292437,18.7495798 C12.3663866,18.7495798 12.5042017,18.7529412 12.5042017,18.7529412 C12.5042017,18.7529412 12.6420168,18.7495798 12.7159664,18.7495798 L13.7579832,18.7495798 L13.1596639,17.0823529 L10.4537815,17.0823529 L10.4537815,17.0823529 Z M11.7983193,13.2739496 L11.0016807,15.5294118 L12.6084034,15.5294118 L11.7983193,13.2739496 Z M10.8773109,4.20168067 C10.6655462,4.41680672 10.6218487,4.85042017 10.6218487,5.17647059 C10.6218487,5.50252101 10.6655462,5.93613445 10.8739496,6.14789916 C11.092437,6.36638655 11.5394958,6.4 11.7882353,6.4 C12.0941176,6.4 12.497479,6.35630252 12.7092437,6.14453782 C12.9210084,5.93613445 12.9647059,5.50252101 12.9647059,5.17647059 C12.9647059,4.85042017 12.9210084,4.41680672 12.7092437,4.20168067 C12.5008403,3.98991597 12.0941176,3.94621849 11.7915966,3.94621849 C11.4890756,3.94957983 11.0823529,3.99327731 10.8773109,4.20168067 L10.8773109,4.20168067 Z M19.9563025,18.7495798 C20.3663866,18.7495798 20.6991597,19.0957983 20.6991597,19.5260504 L20.6991597,22.8504202 C20.6991597,23.2773109 20.3663866,23.6268908 19.9563025,23.6268908 L3.68739496,23.6268908 C3.27731092,23.6268908 2.94453782,23.2806723 2.94453782,22.8504202 L2.94453782,19.5260504 C2.94453782,19.0991597 3.27731092,18.7495798 3.68739496,18.7495798 L5.28067227,18.7495798 L9.52268908,6.8302521 C9.27058824,6.39663866 9.14285714,5.84537815 9.14285714,5.17983193 C9.14285714,4.26890756 9.38151261,3.56638655 9.8487395,3.09243697 C10.302521,2.63529412 10.9546218,2.40336134 11.7915966,2.40336134 C12.6285714,2.40336134 13.2840336,2.63529412 13.7378151,3.09243697 C14.2117647,3.5697479 14.4504202,4.27226891 14.4504202,5.18319328 C14.4504202,5.8487395 14.3193277,6.39663866 14.0672269,6.83361345 L18.3092437,18.7529412 L19.9563025,18.7529412 L19.9563025,18.7495798 Z M2.74621849,9.01848739 C3.04201681,9.31428571 3.0487395,9.80840336 2.76638655,10.1176471 C2.62184874,10.2756303 2.42689076,10.3529412 2.23193277,10.3529412 C2.04705882,10.3529412 1.86218487,10.2823529 1.71764706,10.1344538 C0.578151261,8.98487395 0,7.31764706 0,5.17983193 C0,3.04201681 0.578151261,1.37478992 1.71764706,0.218487395 C2.01344538,-0.0806722689 2.48067227,-0.0705882353 2.76638655,0.238655462 C3.05210084,0.54789916 3.04537815,1.03529412 2.74957983,1.33445378 C1.91260504,2.18487395 1.48571429,3.4789916 1.48571429,5.17983193 C1.48235294,6.88067227 1.9092437,8.17142857 2.74621849,9.01848739 L2.74621849,9.01848739 Z M5.59327731,8.68571429 C5.40840336,8.68571429 5.22352941,8.61512605 5.0789916,8.46722689 C4.31260504,7.69747899 3.92605042,6.58823529 3.92605042,5.17310924 C3.92605042,3.76134454 4.31260504,2.65210084 5.0789916,1.8789916 C5.37478992,1.58319328 5.84201681,1.58991597 6.12773109,1.89915966 C6.41344538,2.20504202 6.40672269,2.69579832 6.11092437,2.99495798 C5.64705882,3.46554622 5.41176471,4.19831933 5.41176471,5.17647059 C5.41176471,6.15462185 5.64705882,6.88739496 6.11092437,7.35462185 C6.40336134,7.65042017 6.41344538,8.14453782 6.13109244,8.45042017 C5.97983193,8.60504202 5.78823529,8.68571429 5.59327731,8.68571429 L5.59327731,8.68571429 Z M21.9058824,0.218487395 C23.0453782,1.37142857 23.6235294,3.03865546 23.6235294,5.17983193 C23.6235294,7.31764706 23.0453782,8.98487395 21.9058824,10.1344538 C21.7613445,10.2789916 21.5764706,10.3529412 21.3915966,10.3529412 C21.1966387,10.3529412 21.0016807,10.2722689 20.8605042,10.1142857 C20.5747899,9.80504202 20.5848739,9.31764706 20.8806723,9.01848739 C21.7176471,8.17142857 22.1445378,6.88067227 22.1445378,5.17983193 C22.1445378,3.47563025 21.7176471,2.18151261 20.8806723,1.33109244 C20.5848739,1.03193277 20.5781513,0.541176471 20.8638655,0.235294118 C21.1462185,-0.0705882353 21.6134454,-0.0806722689 21.9058824,0.218487395 L21.9058824,0.218487395 Z M17.4588235,8.45042017 C17.1764706,8.14117647 17.1831933,7.65378151 17.4789916,7.35462185 C17.9428571,6.88739496 18.1781513,6.15462185 18.1781513,5.17983193 C18.1781513,4.20504202 17.9428571,3.46890756 17.4789916,3.00168067 C17.1831933,2.70252101 17.1731092,2.21176471 17.4588235,1.90252101 C17.7411765,1.59327731 18.2117647,1.58655462 18.507563,1.88571429 C19.2739496,2.65882353 19.6605042,3.76806723 19.6605042,5.17983193 C19.6605042,6.59495798 19.2705882,7.70084034 18.507563,8.47394958 C18.3596639,8.61848739 18.1781513,8.68907563 17.989916,8.68907563 C17.7983193,8.68571429 17.6,8.60504202 17.4588235,8.45042017 L17.4588235,8.45042017 Z" id="Antena_3Masa"></path>
        </g>
    </g>
</svg>

<svg width="24" height="24" viewBox="0 0 24 24" xmlns="http://www.w3.org/2000/svg"><path d="M19.217 22.074v-1.775h-6.501c-.074 0-.215-.003-.215-.003s-.135.003-.209.003h-.958c-.08 0-.231-.003-.231-.003s-.148.003-.23.003H4.43v1.775h14.787zm-8.763-4.992l-.588 1.668h1.008c.08 0 .235.003.235.003s.145-.003.225-.003h.958c.074 0 .212.003.212.003s.138-.003.212-.003h1.042l-.598-1.668h-2.706zm1.344-3.808l-.796 2.255h1.606l-.81-2.255zm-.92-9.072c-.212.215-.256.648-.256.974 0 .327.044.76.252.972.218.218.665.252.914.252.306 0 .71-.044.921-.255.212-.209.256-.642.256-.969 0-.326-.044-.76-.256-.974-.208-.212-.615-.256-.917-.256-.303.004-.71.047-.915.256zm9.078 14.548c.41 0 .743.346.743.776v3.324c0 .427-.333.777-.743.777H3.687c-.41 0-.742-.346-.742-.777v-3.324c0-.427.332-.776.742-.776h1.594L9.523 6.83c-.252-.433-.38-.985-.38-1.65 0-.911.239-1.614.706-2.088.454-.457 1.106-.689 1.943-.689s1.492.232 1.946.69c.474.477.712 1.18.712 2.09 0 .666-.13 1.214-.383 1.65l4.242 11.92h1.647v-.003zM2.746 9.018c.296.296.303.79.02 1.1a.72.72 0 01-1.048.016C.578 8.984 0 7.318 0 5.18S.578 1.375 1.718.218a.717.717 0 011.048.02.797.797 0 01-.016 1.096c-.837.85-1.264 2.145-1.264 3.846-.004 1.7.423 2.991 1.26 3.838zm2.847-.332a.713.713 0 01-.514-.219c-.766-.77-1.153-1.879-1.153-3.294 0-1.412.387-2.52 1.153-3.294a.72.72 0 011.049.02.797.797 0 01-.017 1.096c-.464.47-.7 1.203-.7 2.181 0 .979.236 1.711.7 2.179.292.295.302.79.02 1.095a.751.751 0 01-.538.236zM21.906.218c1.14 1.153 1.718 2.82 1.718 4.962 0 2.138-.579 3.805-1.718 4.954a.711.711 0 01-1.045-.02.797.797 0 01.02-1.096c.837-.847 1.264-2.137 1.264-3.838 0-1.704-.427-2.998-1.264-3.849a.797.797 0 01-.017-1.096.712.712 0 011.042-.017zM17.459 8.45a.8.8 0 01.02-1.095c.464-.468.7-1.2.7-2.175 0-.975-.236-1.711-.7-2.178a.802.802 0 01-.02-1.1.717.717 0 011.049-.016c.766.773 1.153 1.882 1.153 3.294 0 1.415-.39 2.52-1.153 3.294a.73.73 0 01-.518.215.742.742 0 01-.531-.239z" fill="#5CB615" fill-rule="nonzero"/></svg>
